svgs/sharp-solid/hand-back-fist.svg

<svg xmlns="http://www.w3.org/2000/svg" viewBox="0 0 448 512"><!--! Font Awesome Pro 6.6.0 by @fontawesome - https://fontawesome.com License - https://fontawesome.com/license (Commercial License) Copyright 2024 Fonticons, Inc. --><path d="M192 0L96 0l0 80 0 16 0 32 0 48 0 16-32 0 0-16 0-48-32 0 0 105.5c0 44.7 19.8 87 54.1 115.6c12.6 10.5 26.8 18.8 41.9 24.7L128 512l224 0 0-137.3c46.9-19 80-65 80-118.7l0-32 0-96 0-32-80 0 0-32-80 0 0-32-80 0 0-32z"/></svg>

<svg xmlns="http://www.w3.org/2000/svg" viewBox="0 0 448 512"><!--! Font Awesome Pro 6.4.0 by @fontawesome - https://fontawesome.com License - https://fontawesome.com/license (Commercial License) Copyright 2023 Fonticons, Inc. --><path d="M192 0H96V80 96v32 48 16H64V176 128H32V233.5c0 44.7 19.8 87 54.1 115.6c12.6 10.5 26.8 18.8 41.9 24.7V512H352V374.7c46.9-19 80-65 80-118.7V224 128 96H352V64H272V32H192V0z"/></svg>
